www/assets/icons/unarchive.svg

<svg xmlns="http://www.w3.org/2000/svg" width="24" height="24" viewBox="0 0 24 24" fill='currentColor'><path d="m20.55 5.22-1.39-1.68A1.51 1.51 0 0 0 18 3H6c-.47 0-.88.21-1.15.55L3.46 5.22C3.17 5.57 3 6.01 3 6.5V19a2 2 0 0 0 2 2h14c1.1 0 2-.9 2-2V6.5c0-.49-.17-.93-.45-1.28M12 9.5l5.5 5.5H14v2h-4v-2H6.5zM5.12 5l.82-1h12l.93 1z"/></svg>

<svg width="24" height="24" viewBox="0 0 24 24" xmlns="http://www.w3.org/2000/svg" fill='currentColor'><path d="M20.55 5.22L19.16 3.54C18.88 3.21 18.47 3 18 3H6C5.53 3 5.12 3.21 4.85 3.55L3.46 5.22C3.17 5.57 3 6.01 3 6.5V19C3 20.1 3.89 21 5 21H19C20.1 21 21 20.1 21 19V6.5C21 6.01 20.83 5.57 20.55 5.22ZM12 9.5L17.5 15H14V17H10V15H6.5L12 9.5ZM5.12 5L5.94 4H17.94L18.87 5H5.12Z"/></svg>
